X: 3554
T: Big Papi
R: reel
M: 4/4
K: Emajor
Beec BGEG|F2FG ABcf|efge fgec|BceB cagf|
e2ec BGEG|F2FG ABcf|efge fgec|1 Bcef e2ec:|2 Bcef e2ea||
|:gb b/b/b gbeg|fB B/B/B fgaf|gbeg befg|fB B/B/B Bcef|
gb b/b/b gbeg|fB B/B/B fgaf|gbeg fgec|1 Bcef e2ea:|2 Bcef e2ec||

